!!!COM: Music21
!!!OTL: Vals de Teixeira
!!!OMV: pezas_valses_valse-de-teixeira_valse-de-teixeira-partitura.musicxml
**kern
*part1
*staff1
*I"Bagpipes
*I'Bag
*clefG^2
*k[]
*M3/4
=1
!LO:TX:a:t=Presto
4gg
4gg
4gg
=
4gg
4aa
4bb
=
4ee
4ff
4gg
=
2ff
8eeL
8ddJ
=
[2.ee
=
2.ee]
=||
*M3/4
!LO:TX:a:t=Presto
4gg
4gg
4gg
=
4gg
4aa
4bb
=
4ee
4ff
4gg
=
2ff
8eeL
8ddJ
=
[2.ee
!!linebreak:original
=
2.ee]
=||
4gg
4gg
4gg
=
4gg
4aa
4bb
=
4ccc
8bbL
8aaJ
8ggL
8aaJ
=
4bb
8aaL
8ggJ
8ffL
8ggJ
=
4aa
8ggL
8ffJ
8eeL
8ffJ
=
4gg
8ffL
8eeJ
8ddL
8eeJ
=
4ff
4ee
4dd
=
[2.cc
=
2.cc]
!!linebreak:original
=||
4gg
4gg
4gg
=
4gg
4aa
4bb
=
4ccc
8bbL
8aaJ
8ggL
8aaJ
=
4bb
8aaL
8ggJ
8ffL
8ggJ
=
4aa
8ggL
8ffJ
8eeL
8ffJ
=
4gg
8ffL
8eeJ
8ddL
8eeJ
=
4ff
4ee
4dd
=
[2.cc
=
4cc]
8eeL
8ddJ
8eeL
8ffJ
!!linebreak:original
=||
8ggL
8ffJ
8eeL
8ddJ
[4ee
=
4ee]
4gg
4gg
=
8.ffL
16ggJk
8ffL
8eeJ
[4dd
=
4dd]
8ffL
8eeJ
8ddL
8eeJ
=
4ff
8ddL
8eeJ
[4ff
=
4ff]
8bbL
8aaJ
8ggL
8ffJ
=
8.ggL
16aaJk
8ggL
8ffJ
[4ee
=
4ee]
8eeL
8ddJ
8eeL
8ffJ
!!linebreak:original
=||
8ggL
8ffJ
8eeL
8ddJ
[4ee
=
4ee]
4gg
4gg
=
8.ffL
16ggJk
8ffL
8eeJ
[4dd
=
4dd]
8ffL
8eeJ
8ddL
8eeJ
=
4ff
8ddL
8eeJ
[4ff
=
4ff]
8bbL
8aaJ
8ggL
8ffJ
=
8.ggL
16aaJk
8ggL
8ffJ
[4ee
=
2.ee_
=
2.ee]
==
*-
!!!system-decoration: s1,s2
